app/img/index-page/footer-youtube-icon.svg

<svg width="29" height="28" viewBox="0 0 29 28" fill="none" xmlns="http://www.w3.org/2000/svg">
<circle opacity="0.06" cx="14.6406" cy="14" r="14" fill="white"/>
<g opacity="0.7" clip-path="url(#clip0)">
<path d="M21.8237 10.2508C21.6509 9.60818 21.1442 9.10162 20.5017 8.92859C19.3279 8.60742 14.6326 8.60742 14.6326 8.60742C14.6326 8.60742 9.93753 8.60742 8.76373 8.91641C8.13358 9.08926 7.61456 9.60828 7.44171 10.2508C7.13281 11.4245 7.13281 13.8586 7.13281 13.8586C7.13281 13.8586 7.13281 16.305 7.44171 17.4664C7.61475 18.1089 8.12122 18.6155 8.76382 18.7885C9.94989 19.1098 14.6328 19.1098 14.6328 19.1098C14.6328 19.1098 19.3279 19.1098 20.5017 18.8008C21.1443 18.6279 21.6509 18.1213 21.8239 17.4788C22.1327 16.305 22.1327 13.871 22.1327 13.871C22.1327 13.871 22.1451 11.4245 21.8237 10.2508ZM13.1378 16.1073V11.6099L17.0421 13.8586L13.1378 16.1073Z" fill="white" fill-opacity="0.8"/>
</g>
<defs>
<clipPath id="clip0">
<rect width="16" height="16" fill="white" transform="translate(6.64062 6)"/>
</clipPath>
</defs>
</svg>

<svg width="29" height="28" fill="none" xmlns="http://www.w3.org/2000/svg"><circle opacity=".06" cx="14.641" cy="14" r="14" fill="#fff"/><g opacity=".7" clip-path="url(#clip0)"><path d="M21.824 10.25a1.879 1.879 0 00-1.322-1.321c-1.174-.322-5.87-.322-5.87-.322s-4.694 0-5.868.31c-.63.172-1.15.691-1.322 1.334-.31 1.174-.31 3.608-.31 3.608s0 2.446.31 3.607a1.88 1.88 0 001.322 1.322c1.186.322 5.869.322 5.869.322s4.695 0 5.869-.31a1.88 1.88 0 001.322-1.321c.309-1.174.309-3.608.309-3.608s.012-2.447-.31-3.62zm-8.686 5.857V11.61l3.904 2.249-3.904 2.248z" fill="#fff" fill-opacity=".8"/></g><defs><clipPath id="clip0"><path fill="#fff" transform="translate(6.64 6)" d="M0 0h16v16H0z"/></clipPath></defs></svg>
